X: 33143
T: Princess Polly
R: jig
M: 6/8
K: Aminor
|:A/B/|cAc BGB|cAA A2B|cAc B2A|GEE E2B|
cAc BGB|(3cBA c (3BAG B|A(3Bcd edB|cAA A2:|
|:a|age ged|cAA A2a|age g2c|(3Bcd c G2B|
AEc BGd|cAe deg|age =fed|cAA A2:|

